X:1
T:[ID 3-23]
T:[ID 3-23]
T:Bezeichnung standardisiert: Polonaise Polonoise 16.
T:Urheber unbekannt Datum in der hier transkribierten schriftlichen Quelle: 1767
C:Urheber unbekannt
C:Datum in der hier transkribierten schriftlichen Quelle: 1767
%%score 1 2
L:1/8
M:3/4
K:D
V:1 treble nm="Primo"
V:2 treble nm="Secondo"
V:1
 d>f e2 c2 | d2 ecdb | aa/f/ gg/e/ ff/d/ | c/d/e/c/ A2 A2 | (A/G/F/G/) A/G/F/G/ A2 | %5
 BG/B/ dB/d/ g2 | B/A/^G/A/ B/A/G/A/ B2 | cA/c/ ec/e/ a2 | gg/e/ ff/d/ ee/c/ | c/d/e/c/ d2 D2 :: %10
 e/d/c/d/ ee Te2 | f/e/d/e/ ff Tf2 | gg/b/ ee/g/ BB/d/ | c/d/e/c/ A2 A2 | A/G/F/G/ A/G/F/G/ A2 | %15
 BG/B/ dB/d/ g2 | B/A/^G/A/ B/A/G/A/ B2 | cA/c/ ec/e/ a2 | gg/e/ ff/d/ ee/c/ | c/d/e/c/ d2 D2 :| %20
V:2
 !fermata!F>A G2 E2 | F2 GEFg | ff/d/ ee/c/ dd/B/ | A/B/c/A/ F2 F2 | F/E/D/E/ F/E/D/E/ F2 | %5
 GD/G/ BG/B/ B2 | ^G/F/E/F/ G/F/E/F/ G2 | AF/A/ cA/c/ c2 | ee/c/ dd/B/ AA/F/ | E/F/G/E/ F2 F2 :: %10
 c/B/A/B/ cc c2 |{e} d/c/B/c/ dd d2 | ee/g/ cc/e/ ^GG/B/ | A/B/c/A/ c2 A2 | F/E/D/E/ F/E/D/E/ F2 | %15
 GD/G/ BG/B/ B2 | ^G/F/E/F/ G/F/E/F/ G2 | AF/A/ cA/c/ c2 | ee/c/ dd/B/ AA/F/ | E/F/G/E/ F2 F2 :| %20

